src/main/resources/icons/CoffeescriptIcons/org/coffeescript/images/coffeescript.svg

<svg xmlns="http://www.w3.org/2000/svg" width="16" height="16" viewBox="0 0 16 16">
  <path fill="#40B6E0" fill-rule="evenodd" d="M6.32596339,3.9575998 C6.3377101,4.02808005 6.30246998,4.0868136 6.18500289,4.14554714 C6.03229567,4.06332018 5.70338781,4.01633335 5.43321351,4.03982676 C5.13954578,4.06332018 4.89286489,4.15729385 4.92810502,4.35698791 C4.97509185,4.55668196 5.25701287,4.67414905 5.76212136,4.62716222 C6.99552581,4.52144183 6.9837791,3.68742549 8.7927723,3.52297156 C10.2023774,3.39375776 10.9894069,3.828386 11.0951273,4.35698791 C11.1773542,4.76812273 10.8366997,5.16751083 9.81473599,5.2497378 C8.91023939,5.33196476 8.38163748,5.08528387 8.33465065,4.83860298 C8.31115723,4.70938918 8.38163748,4.52144183 8.81626572,4.474455 C8.86325255,4.67414905 9.10993344,4.88558982 9.6972689,4.82685627 C10.1201504,4.79161614 10.4725517,4.63890893 10.4255649,4.40397474 C10.378578,4.15729385 9.93220308,4.01633335 9.22740053,4.07506689 C7.79430203,4.20428069 7.44190076,4.9913102 6.22024301,5.09703058 C5.35098654,5.17925754 4.646184,4.8620964 4.55221033,4.39222804 C4.5169702,4.2160274 4.5169702,3.80489258 5.43321351,3.72266562 C5.90308187,3.68742549 6.27897656,3.76965245 6.32596339,3.9575998 Z M8.04098292,6.1542344 C6.52565745,6.1542344 5.17478591,6.00152718 4.19980905,5.79008641 C3.15435195,5.53165881 2.60225662,5.2497378 2.60225662,4.88558982 C2.60225662,4.7328826 2.67273687,4.6036688 2.88417764,4.45096158 C2.22636193,4.70938918 1.87396066,4.92082994 1.87396066,5.2497378 C1.90920079,5.61388578 2.49653624,5.97803376 3.69470056,6.25995478 C4.82238463,6.54187579 6.26722985,6.69458301 8.00574279,6.69458301 C9.77949586,6.69458301 11.1891009,6.54187579 12.316785,6.25995478 C13.5149493,5.97803376 14.0905381,5.60213907 14.0905381,5.2497378 C14.0905381,4.9913102 13.8321105,4.74462931 13.3622421,4.55668196 C13.4679625,4.62716222 13.5501895,4.74462931 13.5501895,4.87384311 C13.5501895,5.23799109 13.0098409,5.53165881 11.9173969,5.77833971 C10.9071799,6.00152718 9.61504193,6.1542344 8.04098292,6.1542344 Z M2.62434459,8.71109321 C2.55443531,8.77618602 2.48842845,8.84791463 2.42605598,8.92645774 C2.14413497,9.33759255 2.03841459,9.80746092 2.14413497,10.3125694 C2.21461522,10.852918 2.50828295,11.299293 2.94291118,11.6164541 C3.34229929,11.9336153 3.7416874,12.0863225 4.21155576,12.0863225 C3.98836829,12.1568027 3.7416874,12.2742698 3.51849993,12.3095099 C2.94291118,12.4152303 2.43780269,12.3095099 1.96793433,11.945362 C1.52155939,11.581214 1.23963837,11.1113456 1.20439824,10.5357569 C1.16915811,9.96016813 1.34535875,9.37283268 1.74474686,8.86772419 C1.95687392,8.59944585 2.1888834,8.39081479 2.44429536,8.23655092 C2.22904804,7.62665813 2.06535351,6.98801449 1.96793433,6.33043503 C2.15588168,6.62410276 2.69623029,6.90602378 3.70644727,7.16445137 C4.83413134,7.41113227 6.27897656,7.59907961 8.05272963,7.59907961 C9.79124257,7.59907961 11.2360878,7.42287897 12.3637719,7.16445137 C13.3387487,6.9412639 13.8790973,6.65934289 14.1140315,6.33043503 C13.890844,7.61082632 13.4914559,8.80899064 12.9158672,9.85444775 C12.4812389,10.5122635 12.0466107,11.0878522 11.6119825,11.7104278 C11.4357818,12.0745758 11.3183147,12.4387237 11.2478345,12.8028717 L11.2125944,12.8028717 C10.9189266,13.2022598 10.5195385,13.4489407 10.0496702,13.6016479 C9.41534788,13.8130887 8.72229204,13.9188091 8.06447634,13.883569 L7.99399608,13.883569 C7.33618037,13.9188091 6.69011138,13.8248354 6.0675358,13.6016479 C5.56242731,13.4606874 5.15129249,13.2022598 4.86937147,12.8028717 C4.78714451,12.4387237 4.65793071,12.0745758 4.46998336,11.7104278 C4.03535513,11.0878522 3.60072689,10.5122635 3.16609866,9.85444775 C2.9672344,9.48918688 2.78519636,9.1070998 2.62434459,8.71109321 Z"/>
</svg>

<svg xmlns="http://www.w3.org/2000/svg" width="16" height="16" viewBox="0 0 16 16"><rect id="frame" width="16" height="16" fill="none"/><path fill="#40B6E0" fill-rule="evenodd" d="M6.326 3.958c.012.07-.024.129-.141.188-.153-.083-.482-.13-.752-.106-.293.023-.54.117-.505.317.047.2.329.317.834.27 1.234-.106 1.222-.94 3.03-1.104 1.41-.13 2.197.305 2.303.834.082.411-.258.81-1.28.893-.905.082-1.433-.165-1.48-.411-.024-.13.047-.318.481-.365.047.2.294.412.881.353.423-.035.776-.188.729-.423-.047-.247-.494-.388-1.199-.329-1.433.13-1.785.916-3.007 1.022-.869.082-1.574-.235-1.668-.705-.035-.176-.035-.587.881-.67.47-.035.846.048.893.236zm1.715 2.196c-1.515 0-2.866-.152-3.841-.364-1.046-.258-1.598-.54-1.598-.904 0-.153.07-.282.282-.435-.658.258-1.01.47-1.01.799.035.364.623.728 1.82 1.01 1.128.282 2.573.435 4.312.435 1.773 0 3.183-.153 4.31-.435 1.199-.282 1.775-.658 1.775-1.01 0-.259-.259-.505-.729-.693.106.07.188.188.188.317 0 .364-.54.658-1.633.904-1.01.224-2.302.376-3.876.376zM2.624 8.711c-.07.065-.136.137-.198.215a1.748 1.748 0 0 0-.282 1.387c.07.54.364.986.799 1.303.4.318.799.47 1.269.47-.224.07-.47.188-.694.224-.575.105-1.08 0-1.55-.365-.446-.364-.728-.834-.764-1.41a2.435 2.435 0 0 1 .54-1.667c.213-.269.445-.477.7-.631a10.245 10.245 0 0 1-.476-1.907c.188.294.728.576 1.738.834 1.128.247 2.573.435 4.347.435 1.738 0 3.183-.176 4.31-.435.976-.223 1.516-.505 1.751-.834-.223 1.28-.623 2.479-1.198 3.524-.435.658-.87 1.234-1.304 1.856a4.424 4.424 0 0 0-.364 1.093h-.035c-.294.4-.693.646-1.163.799a5.46 5.46 0 0 1-1.986.282h-.07a4.894 4.894 0 0 1-1.926-.282c-.506-.141-.917-.4-1.199-.8a4.558 4.558 0 0 0-.399-1.092c-.435-.622-.87-1.198-1.304-1.856-.199-.365-.38-.747-.542-1.143z"/></svg>
